icons/secure_communication_fill.svg

<svg width="48" height="48" viewBox="0 0 48 48" fill="none" xmlns="http://www.w3.org/2000/svg">
<path fill-rule="evenodd" clip-rule="evenodd" d="M4 20.5C4 12.4919 10.4919 6 18.5 6H29.5C37.5081 6 44 12.4919 44 20.5C44 28.5081 37.5081 35 29.5 35H28V42L25.5 41.5C9 37.5 4 28.5081 4 20.5ZM27.3333 18.0001H29V27.0001H19V18.0001H20.6667V15.2292C20.6667 13.6759 22.159 12.4167 24 12.4167C25.841 12.4167 27.3333 13.6759 27.3333 15.2292V18.0001ZM24 14.4167C24.4703 14.4167 24.8413 14.5783 25.0673 14.769C25.289 14.9561 25.3333 15.1264 25.3333 15.2292V17.9167H22.6667V15.2292C22.6667 15.1264 22.711 14.9561 22.9327 14.769C23.1587 14.5783 23.5297 14.4167 24 14.4167Z" fill="black"/>
</svg>

<svg
  xmlns="http://www.w3.org/2000/svg"
  width="24"
  height="24"
  viewBox="0 0 24 24"
  fill="none"
  stroke="currentColor"
  stroke-width="2"
  stroke-linecap="round"
  stroke-linejoin="round"
>
  <path
    fill-rule="evenodd"
    d="M4 20.5C4 12.492 10.492 6 18.5 6h11C37.508 6 44 12.492 44 20.5S37.508 35 29.5 35H28v7l-2.5-.5C9 37.5 4 28.508 4 20.5M27.333 18H29v9H19v-9h1.667v-2.77c0-1.554 1.492-2.813 3.333-2.813s3.333 1.259 3.333 2.812zM24 14.417c.47 0 .841.161 1.067.352.222.187.266.357.266.46v2.688h-2.666v-2.688c0-.103.044-.273.266-.46.226-.19.597-.352 1.067-.352"
    clip-rule="evenodd"
  />
</svg>
